icons/duneproject.svg

<svg width="16" height="16" viewBox="0 0 16 16" fill="none" xmlns="http://www.w3.org/2000/svg">
<path fill-rule="evenodd" clip-rule="evenodd" d="M2 3.2C2 2.53726 2.44772 2 3 2H13C13.5523 2 14 2.53726 14 3.2V12.8C14 13.4627 13.5523 14 13 14H3C2.44772 14 2 13.4627 2 12.8V3.2ZM13 7.48065C11.5383 7.16171 8.82504 7.26998 7 8C7.76133 8.50755 8.15891 9.03021 8.55048 9.54498C8.93039 10.0444 9.30465 10.5364 10 11C10.9714 11.6476 12.1524 11.4564 13 11.1055V7.48065ZM3 8.00001C3.83333 7.83334 6 8.10001 8 10.5C9.72131 12.5656 11.813 12.5571 13 12.1959V13H3V8.00001Z" fill="#DF9947"/>
</svg>

<svg xmlns="http://www.w3.org/2000/svg" width="16" height="16" fill="none"><path fill="#DF9947" fill-rule="evenodd" d="M2 3.2C2 2.537 2.448 2 3 2h10c.552 0 1 .537 1 1.2v9.6c0 .663-.448 1.2-1 1.2H3c-.552 0-1-.537-1-1.2V3.2Zm11 4.28c-1.462-.318-4.175-.21-6 .52.761.508 1.159 1.03 1.55 1.545.38.5.755.991 1.45 1.455.971.648 2.152.456 3 .105V7.481ZM3 8c.833-.167 3 .1 5 2.5 1.721 2.066 3.813 2.057 5 1.696V13H3V8Z" clip-rule="evenodd"/></svg>
